X:1
T:Suite in C Minor for Lute (trans. to A minor)
T:2. Double
T:Johann Sebastian Bach (1685-1750) BWV 997
T:by Mutopia 2013/02/17-54 Scritto con MuseScore, un software libero e gratuito: http://musescore.org/it 
T:by Mutopia 2013/02/17-54 Scritto con MuseScore, un software libero e gratuito: http://musescore.org/it 
C:Johann Sebastian Bach
Z:by Mutopia 2013/02/17-54
Z:Scritto con MuseScore, un software libero e gratuito: http://musescore.org/it
%%score ( 1 2 )
L:1/8
Q:3/8=80
M:6/8
K:C
V:1 treble-8 nm="Chitarra"
V:2 treble-8 
V:1
 f/e/d/ | c/e/c/A/(^G/A/) c/e/c/A/(G/A/) | c/e/c/A/(^G/A/) a>Ac/e/ | f/e/d/c/B/A/ ^G/(f/e/)d/c/B/ | %4
 (c/B/)A/^G/A/E/ C/(E/D/)C/B,/A,/ | E,/B,/D/ ^G/^d/e/ ^F,/A,/C/ A/d/e/ | %6
 ^G,/A,/B,/ D/B/d/ c/B/A/^G/A/c/ | D/(c/B/)A/B/d/ (f/e/)d/c/B/A/ | %8
 ^G/ (E,/^G,/)B,/E/G/ B/d/e/^g/b/d'/ | (c'/b/)a/^g/a/c'/ e/f/=g/_b/a/g/ | %10
 f/e/d/^c/d/f/ A/B/=c/e/d/c/ | B/A/G/^F/G/B/ d/e/f/a/g/f/ | e/d/c/B/c/e/ ^G/A/B/d/c/B/ | %13
 ^F/^G/A/ B/c/^d/ E/G/A/ c/d/e/ | ^D/^G/A/ c/^f/g/ a/f/_e/ x3/2 | %15
 z/ (b/a/)g/^f/e/ z/ (a/g/)f/e/^d/ | e/B/^G/E/B,/^G,/ E,3/2 z/ :: c'/b/a/ | %18
 ^g/b/g/e/(^d/e/) f/b/f/=d/c/B/ | ^c/e/c/A/(^G/A/) _B/e/B/=G/F/E/ | %20
 F/(A/G/)F/E/D/ ^C/(_b/a/)g/f/e/ | (f/e/)d/^c/d/A/ F/A/(D/F/)A/=c/ | %22
 B/(E/F/)D/ z/ c/ d/E/F/D/ z/ d/ | e/(A/_B/)G/ z/ f/ g/(A/B/)G/ z/ B/ | %24
 A/c/d/e/f/B/ (f/e/)d/c/g/^f/ | g2 z B/d/f/g/b/ z/ | z/ c/G/^F/G/c/ d/G/e/G/f/G/ | %27
 z/ e/d/c/d/e/ f/c/g/c/a/c/ | g/c/d/_B/A/G/ A/(E/F/)C/ z/ a/ | b/(e/f/)d/c/B/ c/(^G/A/)E/ z/ ^g/ | %30
 (^f/g/)a/f/_e/d/ c/d/e/c/B/A/ | (B/c/)d/B/_A/G/ F/G/A/F/E/D/ | E/(G/A/)B/c/d/ (e/g/)e/c/d/B/ | %33
 c/(g/e/)c/G/E/ z z/ c'/b/a/ | ^g/f/e/d/e/g/ a/A/=g/f/e/d/ | ^c/_B/A/G/G/[Gc]/ d/A/=c/=B/A/^G/ | %36
 B/A/c/B/d/c/ e/d/(f/e/)d/c/ | B/A/^G/^F/E/^D/ ME>fe/d/ | c/e/c/A/(^G/A/) c/e/c/A/(G/A/) | %39
 c/e/c/A/(^G/A/) a>Ac/e/ | (f/e/)d/c/B/A/ ^G/(f/e/)d/c/B/ | (c/B/)A/^G/A/E/ (=G/_B/)^c/e/f/g/ | %42
 (f/e/)d/^c/d/f/ (A/B/)=c/_e/d/c/ | B/A/G/^F/G/B/ d/e/f/a/g/f/ | e/d/c/B/c/e/ (G/A/)_B/d/c/B/ | %45
 A/G/F/E/F/A/ C/D/E/G/F/E/ | B,/^C/D/ E/F/^G/ A,/C/D/ F/G/A/ | ^G,/^C/D/ F/B/c/ d/B/^G/ z/ z | %48
 z/ E/^F/^G/A/B/ c/e/c/A/B/^g/ | a/e/c/A/E/C/ A,3/2 :| %50
V:2
 z/ z | A,2 z G,2 z | F,2 z (C/A,/)E/ z/ z | D2 z E2 z | A,2 z z2 x | x6 | x3 A,2 z | F,2 z D2 z | %8
 z/ x11/2 | A,2 z C2 z | D2 z F2 z | G,2 z B,2 z | C2 z E2 z | x6 | x3 B,>cB/A/ | G2 z B2 z | %16
 E2 z z x :: z z/ | E,2 z ^G,2 z | G,2 z ^C2 z | D2 F, E,2 A, | D2 z z F,F, | G, z G, B, z G, | %23
 C z C C z C | F2 D C2 A, | z/ G,/B,/D/F/G/ z2 z/ F/ | E z z B, z z | C z z D z z | E z C F, z F, | %29
 ^G, z E, A, z A, | D2 z ^F2 z | G2 z B,2 z | C2 E G2 G, | C2 z C2 z | B,CD C^CD | EFA FDE | %36
 ^F^GA =FCD | E,3- E,^G,E, | A,2 z G,2 z | F,2 z (C/A,/)E/ z/ z | D2 z E2 z | A,2 z z2 z | %42
 D2 z F,2 z | G,2 z B,2 z | C2 z E,2 z | F,2 z A,2 z | x6 | x3 E,>FE/D/ | C2 A, E2 E, | A,3 x3/2 :| %50

